X:554
T:Sunny Banks, The
R:reel
D:De Danann 1
D:Paddy Glackin: Ceol ar an bhFidil le Paddy Glackin
Z:id:hn-reel-554
M:C|
K:D
AF~F2 d2cA|(3Bcd AF GFGB|AF~F2 d2cA|1 (3Bcd AF DEFG:|2 (3Bcd AF D3g||
|:fded cAAg|fdef g2ag|fded cA~A2|1 (3Bcd AF D3g:|2 (3Bcd AF DEFG||
